dist/images/pinterest-square.svg

<?xml version="1.0" encoding="UTF-8" standalone="no"?>
<svg width="30px" height="30px" viewBox="0 0 30 30" version="1.1" xmlns="http://www.w3.org/2000/svg" xmlns:xlink="http://www.w3.org/1999/xlink">
    <!-- Generator: Sketch 41.2 (35397) - http://www.bohemiancoding.com/sketch -->
    <title>pinterest-square</title>
    <desc>Created with Sketch.</desc>
    <defs></defs>
    <g id="Pages" stroke="none" stroke-width="1" fill="none" fill-rule="evenodd">
        <g id="Homepage" transform="translate(-630.000000, -1717.000000)" fill="#FFFFFF">
            <g id="footer" transform="translate(0.000000, 1632.000000)">
                <g id="pinterest-square" transform="translate(630.000000, 85.000000)">
                    <path d="M24.375,0 C25.9244792,0 27.249349,0.550130208 28.3496094,1.65039062 C29.4498698,2.75065104 30,4.07552083 30,5.625 L30,24.375 C30,25.9244792 29.4498698,27.249349 28.3496094,28.3496094 C27.249349,29.4498698 25.9244792,30 24.375,30 L10.2148438,30 C11.3216146,28.4114583 12.0247396,27.0442708 12.3242188,25.8984375 C12.4414062,25.4557292 12.7864583,24.0950521 13.359375,21.8164062 C13.6328125,22.3242188 14.1113281,22.7604167 14.7949219,23.125 C15.4785156,23.4895833 16.2109375,23.671875 16.9921875,23.671875 C19.3489583,23.671875 21.2727865,22.7115885 22.7636719,20.7910156 C24.2545573,18.8704427 25,16.4388021 25,13.4960938 C25,12.4023438 24.7721354,11.344401 24.3164062,10.3222656 C23.8606771,9.30013021 23.2324219,8.39518229 22.4316406,7.60742188 C21.6308594,6.81966146 20.6380208,6.18815104 19.453125,5.71289062 C18.2682292,5.23763021 16.9856771,5 15.6054687,5 C14.2513021,5 12.985026,5.18554688 11.8066406,5.55664062 C10.6282552,5.92773438 9.63216146,6.42578125 8.81835938,7.05078125 C8.00455729,7.67578125 7.3046875,8.38867188 6.71875,9.18945312 C6.1328125,9.99023438 5.69986979,10.8235677 5.41992188,11.6894531 C5.13997396,12.5553385 5,13.4179688 5,14.2773438 C5,15.6054687 5.25716146,16.7773438 5.77148438,17.7929688 C6.28580729,18.8085938 7.04427083,19.5247396 8.046875,19.9414062 C8.21614583,20.0065104 8.36914062,20.0065104 8.50585938,19.9414062 C8.64257812,19.8763021 8.73697917,19.7526042 8.7890625,19.5703125 C8.91927083,18.9973958 9.01692708,18.6002604 9.08203125,18.3789062 C9.16015625,18.0794271 9.08854167,17.8059896 8.8671875,17.5585938 C8.21614583,16.7513021 7.890625,15.7747396 7.890625,14.6289062 C7.890625,12.6757812 8.56445312,11.0058594 9.91210938,9.61914062 C11.2597656,8.23242188 13.0208333,7.5390625 15.1953125,7.5390625 C17.1354167,7.5390625 18.6490885,8.06640625 19.7363281,9.12109375 C20.8235677,10.1757812 21.3671875,11.5429688 21.3671875,13.2226562 C21.3671875,15.4101562 20.9277344,17.2721354 20.0488281,18.8085938 C19.1699219,20.3450521 18.0403646,21.1132812 16.6601562,21.1132812 C15.8789062,21.1132812 15.2473958,20.8300781 14.765625,20.2636719 C14.2838542,19.6972656 14.1341146,19.0234375 14.3164062,18.2421875 C14.4205729,17.7994792 14.593099,17.1972656 14.8339844,16.4355469 C15.0748698,15.6738281 15.2669271,15.0097656 15.4101562,14.4433594 C15.5533854,13.8769531 15.625,13.3919271 15.625,12.9882812 C15.625,12.3502604 15.452474,11.8196615 15.1074219,11.3964844 C14.7623698,10.9733073 14.2708333,10.7617188 13.6328125,10.7617188 C12.8385417,10.7617188 12.1647135,11.1295573 11.6113281,11.8652344 C11.0579427,12.6009115 10.78125,13.5091146 10.78125,14.5898438 C10.78125,15.5273438 10.9375,16.3151042 11.25,16.953125 L9.3359375,25.0390625 C9.0234375,26.3411458 8.97786458,27.9947917 9.19921875,30 L5.625,30 C4.07552083,30 2.75065104,29.4498698 1.65039062,28.3496094 C0.550130208,27.249349 0,25.9244792 0,24.375 L0,5.625 C0,4.07552083 0.550130208,2.75065104 1.65039062,1.65039062 C2.75065104,0.550130208 4.07552083,0 5.625,0 L24.375,0 Z" id="Shape"></path>
                </g>
            </g>
        </g>
    </g>
</svg>

<svg width="30" height="30" viewBox="0 0 30 30" xmlns="http://www.w3.org/2000/svg"><title>pinterest-square</title><path d="M24.375 0c1.55 0 2.874.55 3.975 1.65C29.45 2.75 30 4.076 30 5.625v18.75c0 1.55-.55 2.874-1.65 3.975-1.1 1.1-2.426 1.65-3.975 1.65h-14.16c1.107-1.589 1.81-2.956 2.11-4.102.116-.442.461-1.803 1.034-4.082.274.508.752.944 1.436 1.309a4.6 4.6 0 0 0 2.197.547c2.357 0 4.28-.96 5.772-2.881 1.49-1.92 2.236-4.352 2.236-7.295a7.714 7.714 0 0 0-.684-3.174 8.807 8.807 0 0 0-1.884-2.715c-.801-.787-1.794-1.419-2.979-1.894C18.268 5.238 16.986 5 15.605 5c-1.354 0-2.62.186-3.798.557-1.179.37-2.175.869-2.989 1.494a10.53 10.53 0 0 0-2.1 2.138 8.826 8.826 0 0 0-1.298 2.5A8.373 8.373 0 0 0 5 14.277c0 1.328.257 2.5.771 3.516.515 1.016 1.273 1.732 2.276 2.148.17.066.322.066.459 0 .137-.065.231-.188.283-.37.13-.574.228-.97.293-1.192.078-.3.007-.573-.215-.82-.65-.808-.976-1.784-.976-2.93 0-1.953.673-3.623 2.021-5.01 1.348-1.387 3.109-2.08 5.283-2.08 1.94 0 3.454.527 4.541 1.582 1.088 1.055 1.631 2.422 1.631 4.102 0 2.187-.44 4.05-1.318 5.586-.88 1.536-2.009 2.304-3.389 2.304-.781 0-1.413-.283-1.894-.85-.482-.566-.632-1.24-.45-2.02.105-.444.277-1.046.518-1.807.24-.762.433-1.426.576-1.993.143-.566.215-1.051.215-1.455 0-.638-.173-1.168-.518-1.592-.345-.423-.836-.634-1.474-.634-.794 0-1.468.368-2.022 1.103-.553.736-.83 1.644-.83 2.725 0 .937.156 1.725.469 2.363L9.336 25.04c-.313 1.302-.358 2.956-.137 4.961H5.625c-1.55 0-2.874-.55-3.975-1.65C.55 27.25 0 25.924 0 24.375V5.625c0-1.55.55-2.874 1.65-3.975C2.75.55 4.076 0 5.625 0h18.75z" fill="#FFF" fill-rule="evenodd"/></svg>
